docs/.gitbook/assets/icon-plug-16@light.svg

<svg width="32" height="32" viewBox="0 0 16 16" fill="none" xmlns="http://www.w3.org/2000/svg">
<rect x="0" y="0" width="16" height="16" fill="#fff"/>
<path fill-rule="evenodd" clip-rule="evenodd" d="M11.7803 1.21967C12.0732 1.51256 12.0732 1.98744 11.7803 2.28033L9.80285 4.25781L11.7422 6.19715L13.7197 4.21967C14.0126 3.92678 14.4874 3.92678 14.7803 4.21967C15.0732 4.51256 15.0732 4.98744 14.7803 5.28033L12.8029 7.25781L13.7803 8.23529C13.921 8.37594 14 8.5667 14 8.76562C14 8.96453 13.921 9.15529 13.7803 9.29595L12.5418 10.5345C10.768 12.3083 7.99374 12.4719 6.03536 11.0253L2.28033 14.7803C1.98744 15.0732 1.51256 15.0732 1.21967 14.7803C0.926777 14.4874 0.926777 14.0126 1.21967 13.7197L4.97469 9.96464C3.52811 8.00626 3.69173 5.232 5.46554 3.45818L6.70405 2.21967C6.99695 1.92678 7.47182 1.92678 7.76471 2.21967L8.74219 3.19715L10.7197 1.21967C11.0126 0.926777 11.4874 0.926777 11.7803 1.21967ZM8.21164 4.78792L7.23438 3.81066L6.52621 4.51884C5.15793 5.88711 5.15793 8.10552 6.52621 9.47379C7.89448 10.8421 10.1129 10.8421 11.4812 9.47379L12.1893 8.76562L11.2119 7.78814L8.21208 4.78836C8.21201 4.78829 8.21194 4.78821 8.21186 4.78814C8.21179 4.78806 8.21172 4.78799 8.21164 4.78792Z" fill="#000"/>
</svg>

<svg xmlns="http://www.w3.org/2000/svg" width="32" height="32" fill="none" viewBox="0 0 16 16"><path fill="#fff" d="M0 0h16v16H0z"/><path fill="#000" fill-rule="evenodd" d="M11.78 1.22a.75.75 0 0 1 0 1.06L9.803 4.258l1.94 1.94L13.72 4.22a.75.75 0 1 1 1.06 1.06l-1.977 1.978.977.977a.75.75 0 0 1 0 1.061l-1.238 1.239a5.005 5.005 0 0 1-6.507.49L2.28 14.78a.75.75 0 0 1-1.06-1.06l3.755-3.755a5.005 5.005 0 0 1 .49-6.507l1.24-1.238a.75.75 0 0 1 1.06 0l.978.977L10.72 1.22a.75.75 0 0 1 1.06 0M8.212 4.788l-.978-.977-.708.708a3.504 3.504 0 1 0 4.955 4.955l.708-.708-.977-.978z" clip-rule="evenodd"/></svg>
